mobile/24/svg/camera-slash-24.svg

<svg width="24" height="24" viewBox="0 0 24 24" fill="none" xmlns="http://www.w3.org/2000/svg">
<path fill-rule="evenodd" clip-rule="evenodd" d="M1.23768 1.99023L19.9997 20.7522L18.7622 21.9897L16.1028 19.3303C15.8373 19.4289 15.5503 19.4829 15.25 19.4829H5.5C4.121 19.4829 3 18.3619 3 16.9829V7.01791C3 6.77738 3.03534 6.54624 3.10071 6.32813L0.000244141 3.22767L1.23768 1.99023ZM4.75 7.97743V16.9829C4.75 17.3959 5.087 17.7329 5.5 17.7329H14.5055L4.75 7.97743Z" fill="black"/>
<path d="M21.457 5.74694C20.503 5.35294 19.461 5.55994 18.731 6.28894L17.75 7.27094V7.01794C17.75 5.63894 16.629 4.51794 15.25 4.51794H5.87598L7.62498 6.26794H15.25C15.663 6.26794 16 6.60494 16 7.01794V9.38394C16 9.73794 16.213 10.0569 16.54 10.1929C16.866 10.3279 17.242 10.2539 17.494 10.0029L19.969 7.52694C20.298 7.19894 20.678 7.31994 20.787 7.36494C20.895 7.40994 21.25 7.59294 21.25 8.05694V15.9439C21.25 16.4089 20.896 16.5909 20.787 16.6359C20.677 16.6809 20.297 16.7999 19.97 16.4749L17.494 13.9979C17.242 13.7459 16.866 13.6709 16.54 13.8079C16.213 13.9429 16 14.2629 16 14.6159V14.9779L18.737 17.7149C19.466 18.4409 20.509 18.6449 21.457 18.2529C22.409 17.8579 23 16.9739 23 15.9429V8.05694C23 7.02594 22.409 6.14194 21.457 5.74694Z" fill="black"/>
</svg>

<svg width="24" height="24" fill="none" xmlns="http://www.w3.org/2000/svg"><path fill-rule="evenodd" clip-rule="evenodd" d="M1.238 1.99 20 20.752l-1.238 1.238-2.66-2.66a2.443 2.443 0 0 1-.852.153H5.5a2.502 2.502 0 0 1-2.5-2.5V7.018c0-.24.035-.472.1-.69L0 3.228 1.238 1.99zM4.75 7.977v9.006c0 .413.337.75.75.75h9.005L4.75 7.977z" fill="#000"/><path d="M21.457 5.747a2.463 2.463 0 0 0-2.726.542l-.981.982v-.253c0-1.38-1.121-2.5-2.5-2.5H5.876l1.749 1.75h7.625c.413 0 .75.337.75.75v2.366a.876.876 0 0 0 1.494.619l2.475-2.476a.738.738 0 0 1 .818-.162.736.736 0 0 1 .463.692v7.887a.734.734 0 0 1-.463.692.74.74 0 0 1-.817-.161l-2.476-2.477a.875.875 0 0 0-1.494.618v.362l2.737 2.737c.729.726 1.772.93 2.72.538A2.461 2.461 0 0 0 23 15.943V8.057a2.461 2.461 0 0 0-1.543-2.31z" fill="#000"/></svg>
